X: 521
T: Cânâ Rakîbi Handân Edersin
C: Giriftzen Asım Bey
O: Turkey
F: http://compmusic.upf.edu/node/140
N: ussak--sarki--kapali_curcuna--cana_rakibi--giriftzen_asim_bey
N: makam= ussak
N: form= sarki
N: usul= kapali_curcuna = 10/8
M: 10/8
L: 1/16
K: C _2/4B   
Q: 1/4=192
%%MIDI tuningsystem comma53
d8-d2d2 e2c4B2  | A2B2 c2{d}c2 B2c2 d2B2 A2G2  | \
w:  ARANAĞME  |   | 
^3/4F2G2 A2B2 c2d2 e2f2 e2d2  | 
w:   | 
a2g2 f2e2 d2e2 c2d4z2  | d8-d2d2 e2c4B2  | \
w:   |  ARANAĞME  | 
A2B2 c2{d}c2 B2c2 d2B2 A2G2  | 
w:   | 
^3/4F2G2 A2B2 c2d2 e2c2 B2A2  | A2B2 d2c2 B2B2 A2A4z2  | \
w:   |   | 
d8-d2c2 _3/4B2A4B2  | 
w:  Câ nâ   | 
c4 d2B2 A2A8z2  | z4 c2d4d8-d2  | G4 A2B4c4d6  | \
w:  ra kî *  *  bi   |  han *  dân_  |   | 
e2f2 g2e2 d2d8z2  | 
w:  e *  der *  *  sin    | 
e2g2 f2e2 d2c2 B2A4z2  | d8-d2c2 _3/4B2A4B2  | \
w:  SAZ  |  Câ nâ   | 
c4 d2B2 A2A8z2  | 
w:  ra kî *  *  bi   | 
z4 c2d4d8-d2  | G4 A2B4c4d6  | e2f2 g2e2 d2d8z2  | \
w:  han *  dân_  |   |  e *  der *  *  sin    | 
e2g2 f2e2 d2e2 c2d4z2  | 
w:  SAZ  | 
d2c2 d2e4c2 B2A4B2  | c4 d2B2 A2A8z2  | \
w:  Ben  *  *  *  bî  |  ne vâ *  *  yı   | 
z4 G2A4A8-A2  | G4 A2B4d4c4B2  | 
w:  gir *  yân_  |   | 
d4 c2d4c2 BAB4z2  | A2B2 d2c2 d2c2 BAB4z2  | \
w:  e der *  sin    |  SAZ  | 
d2c2 d2e4c2 B2A4B2  | 
w:  Ben  *  *  *  bî  | 
c4 d2B2 A2A8-A2  | z4 G2A4A8-A2  | G4 A2B4d4c4B2  | \
w:  ne vâ *  *  yı   |  gir *  yân_  |   | 
d4 c2B2 A2A8z2  | 
w:  e der *  *  sin    | 
A4 f2e2 d2c2 d2e4z2  | d6e4e8d2  | d4 e4 d2c2 B2c4z2  | \
w:  SAZ  |  Bî *  gâ  |  ne ler *  le   | 
G6c4c2 B2c6  | 
w:  ün *  sî  | 
e2f2 g2e2 d2d8z2  | g8-g2^3/4f2 a2g4z2  | \
w:  yet_ *  et *  *  me    |  SAZ  | 
g8-g2g2 ^3/4f2_3/4e2 d2e2  | ^3/4f4 g2_3/4e2 d2d8z2  | 
w:  Bî gâ  |  ne ler *  *  le    | 
G4 A2B4c4d6  | e2f2 g2e2 d2d8z2  | e2g2 f2e2 d2e2 c2d4z2  | 
w:  ün *  *  sî  |  yet_ *  et *  *  me    |  SAZ  | 
d2c2 d2e4c2 B2A4B2  | c4 d2B2 A2A8z2  | \
w:  Ben  *  *  *  bî  |  ne vâ *  *  yı   | 
z4 G2A4A8-A2  | G4 A2B4d4c4B2  | 
w:  gir *  yân_  |   | 
d4 c2d4c2 BAB4z2  | A2B2 d2c2 d2c2 BAB4z2  | \
w:  e der *  sin    |  SAZ  | 
d2c2 d2e4c2 B2A4B2  | 
w:  Ben  *  *  *  bî  | 
c4 d2B2 A2A8-A2  | z4 G2A4A8-A2  | G4 A2B4d4c4B2  | \
w:  ne vâ *  *  yı   |  gir *  yân_  |   | 
d4 c2B2 A2A8z2  | 
w:  e der *  *  sin    | 
A4 f2e2 d2c2 B2A4z2  | |


